X:206
T:Reel 206
M:4/4
K:Dmaj
L:1/8
dc|A>D (3DDD AGEG|A>d (3dcd edcd|A>D (3DDD AGEG|ABGE EDDG|Adde fdec|Addc  (3ABc Gc|Ad (3dcd eded|=cAGE D2|AG|Adde fdec|Addc ABcA|Addc defd|eaag eddc|Addc efec|Adde f2ec| (3ABc dB cBcG|EFGE FDD|
